public/logo-orange.svg

<svg fill="none" height="73" viewBox="0 0 120 73" width="120" xmlns="http://www.w3.org/2000/svg"><g fill="#fa7328"><path d="m14.3136.328842h-.0792c-4.0008 0-7.54316 1.684798-9.71756 4.619998-1.404 1.8552-2.34 4.0512-2.34 8.74076v14.5464h3.6744v-14.3088c0-3.8472.7272-5.42156 1.5144-6.55196 1.5384-2.2488 4.05596-3.5424 6.90716-3.5496 2.8512.0072 5.3688 1.2984 6.9096 3.5496.7872 1.1304 1.5144 2.70476 1.5144 6.55196v14.3088h3.6744v-14.5464c0-4.68956-.936-6.88556-2.34-8.74076-2.1744-2.9352-5.7168-4.619998-9.7176-4.619998z"/><path d="m89.0856 30.5088h-3.6936v41.1409h3.6936z"/><path d="m14.5704 68.724c3.0456 0 5.8632-1.2672 8.1456-3.6672l.1104-.12 2.6592 2.4648-.108.12c-2.6976 2.9976-6.6144 4.7184-10.7472 4.7184-3.828 0-7.43276-1.3608-10.15436-3.8352-2.8848-2.6232-4.47359859-6.3096-4.47359859-10.38 0-7.9704 6.19199859-14.2152 14.09755859-14.2152 4.0776 0 7.5744 1.428 10.3872 4.2408l.1104.108-2.34 2.6664-.1248-.12c-2.2776-2.208-5.0544-3.3768-8.0328-3.3768-5.73596 0-10.40396 4.7976-10.40396 10.6968 0 6 4.776 10.6992 10.87436 10.6992z"/><path d="m30.3216 44.4024h3.6936v27.2496h-3.6936z"/><path d="m52.8768 43.812c-3.7872 0-6.8304 1.8385-8.3376 3.7848v-3.1944h-3.6936v27.2496h3.6936v-18.4944c1.4328-3.4896 4.7544-5.8296 8.2776-5.8296.78 0 1.3488.0216 1.5672.0576l.1656.0288.5208-3.4536-.1608-.0264c-.3672-.0624-1.5528-.1224-2.0328-.1224z"/><path d="m69.7416 68.724c3.0456 0 5.8632-1.2672 8.1456-3.6672l.1104-.12 2.6592 2.4648-.108.12c-2.6976 2.9976-6.6144 4.7184-10.7472 4.7184-3.828 0-7.4328-1.3608-10.1544-3.8352-2.8848-2.6232-4.4736-6.3096-4.4736-10.38 0-7.9704 6.192-14.2152 14.0976-14.2152 4.0776 0 7.5744 1.428 10.3872 4.2408l.1104.108-2.34 2.6664-.1248-.12c-2.2776-2.208-5.0544-3.3768-8.0328-3.3768-5.736 0-10.404 4.7976-10.404 10.6968 0 6 4.776 10.6992 10.8744 10.6992z"/><path clip-rule="evenodd" d="m94.2864 58.0272c0-8.1048 5.604-14.2152 13.0346-14.2152 7.229 0 12.679 5.7312 12.679 13.3296 0 .2472 0 .66-.06 1.2l-.017.1464h-21.9358c.3217 6.0385 4.4068 10.2384 9.9818 10.2384 3.439 0 6.374-1.368 8.491-3.9552l.113-.1368 2.599 2.4696-.094.1176c-2.486 3.144-6.64 5.0208-11.109 5.0208-7.927 0-13.6826-5.9784-13.6826-14.2152zm13.0346-10.6992c-4.467 0-8.0282 3.0384-9.1226 7.7592h17.9616c-.77-4.5792-4.38-7.7592-8.839-7.7592z" fill-rule="evenodd"/><path clip-rule="evenodd" d="m46.2192.364848c7.872 0 14.0376 6.244802 14.0376 14.215152 0 7.9704-6.168 14.2129-14.0376 14.2153-7.872 0-14.0376-6.2449-14.0376-14.2153 0-7.97035 6.1656-14.215152 14.0376-14.215152zm-.0024 3.516002c-5.8968 0-10.344 4.6008-10.344 10.69915 0 6.0984 4.4496 10.6968 10.344 10.6968 5.8968 0 10.344-4.5984 10.344-10.6968 0-6.10075-4.4472-10.69915-10.344-10.69915z" fill-rule="evenodd"/><path d="m75.468 22.2168-9.768-21.16556-.0456-.096001h-4.0224l12.6672 27.249561h2.3952l12.4992-27.01676.108-.232801h-4.02z"/><path clip-rule="evenodd" d="m104.525.364848c3.725 0 7.233 1.473602 9.696 4.053602v-3.463204h3.576v27.249554h-3.576v-3.6408c-2.17 2.6568-5.688 4.2289-9.519 4.2289-2.992 0-5.726-.8641-8.1236-2.5681-3.684-2.5776-5.796-6.8208-5.796-11.6448 0-4.3656 1.8504-8.43596 5.076-11.16475 2.376-1.9392 5.5346-3.050402 8.6666-3.050402zm.12 24.911952c3.806 0 7.339-2.1624 9.458-5.784v-10.30075c-1.286-2.1504-4.855-5.3136-9.518-5.3136-2.29 0-4.6178.8256-6.389 2.2656-2.3616 1.9488-3.7176 5.02315-3.7176 8.43355 0 3.6169 1.5624 6.8785 4.1808 8.7216 1.9008 1.3128 3.9148 1.9776 5.9858 1.9776z" fill-rule="evenodd"/></g></svg>

<svg xmlns="http://www.w3.org/2000/svg" width="120" height="73" viewBox="0 0 120 73" fill="none">
    <path
        d="M14.3136 0.328842H14.2344C10.2336 0.328842 6.69124 2.01364 4.51684 4.94884C3.11284 6.80404 2.17684 9.00004 2.17684 13.6896V28.236H5.85124V13.9272C5.85124 10.08 6.57844 8.50564 7.36564 7.37524C8.90404 5.12644 11.4216 3.83284 14.2728 3.82564C17.124 3.83284 19.6416 5.12404 21.1824 7.37524C21.9696 8.50564 22.6968 10.08 22.6968 13.9272V28.236H26.3712V13.6896C26.3712 9.00004 25.4352 6.80404 24.0312 4.94884C21.8568 2.01364 18.3144 0.328842 14.3136 0.328842Z"
        fill="#FA7328" />
    <path d="M89.0856 30.5088H85.392V71.6497H89.0856V30.5088Z" fill="#FA7328" />
    <path
        d="M14.5704 68.724C17.616 68.724 20.4336 67.4568 22.716 65.0568L22.8264 64.9368L25.4856 67.4016L25.3776 67.5216C22.68 70.5192 18.7632 72.24 14.6304 72.24C10.8024 72.24 7.19764 70.8792 4.47604 68.4048C1.59124 65.7816 0.00244141 62.0952 0.00244141 58.0248C0.00244141 50.0544 6.19444 43.8096 14.1 43.8096C18.1776 43.8096 21.6744 45.2376 24.4872 48.0504L24.5976 48.1584L22.2576 50.8248L22.1328 50.7048C19.8552 48.4968 17.0784 47.328 14.1 47.328C8.36404 47.328 3.69604 52.1256 3.69604 58.0248C3.69604 64.0248 8.47204 68.724 14.5704 68.724Z"
        fill="#FA7328" />
    <path d="M30.3216 44.4024H34.0152V71.652H30.3216V44.4024Z" fill="#FA7328" />
    <path
        d="M52.8768 43.812C49.0896 43.812 46.0464 45.6505 44.5392 47.5968V44.4024H40.8456V71.652H44.5392V53.1576C45.972 49.668 49.2936 47.328 52.8168 47.328C53.5968 47.328 54.1656 47.3496 54.384 47.3856L54.5496 47.4144L55.0704 43.9608L54.9096 43.9344C54.5424 43.872 53.3568 43.812 52.8768 43.812Z"
        fill="#FA7328" />
    <path
        d="M69.7416 68.724C72.7872 68.724 75.6048 67.4568 77.8872 65.0568L77.9976 64.9368L80.6568 67.4016L80.5488 67.5216C77.8512 70.5192 73.9344 72.24 69.8016 72.24C65.9736 72.24 62.3688 70.8792 59.6472 68.4048C56.7624 65.7816 55.1736 62.0952 55.1736 58.0248C55.1736 50.0544 61.3656 43.8096 69.2712 43.8096C73.3488 43.8096 76.8456 45.2376 79.6584 48.0504L79.7688 48.1584L77.4288 50.8248L77.304 50.7048C75.0264 48.4968 72.2496 47.328 69.2712 47.328C63.5352 47.328 58.8672 52.1256 58.8672 58.0248C58.8672 64.0248 63.6432 68.724 69.7416 68.724Z"
        fill="#FA7328" />
    <path fill-rule="evenodd" clip-rule="evenodd"
        d="M94.2864 58.0272C94.2864 49.9224 99.8904 43.812 107.321 43.812C114.55 43.812 120 49.5432 120 57.1416C120 57.3888 120 57.8016 119.94 58.3416L119.923 58.488H97.9872C98.3089 64.5265 102.394 68.7264 107.969 68.7264C111.408 68.7264 114.343 67.3584 116.46 64.7712L116.573 64.6344L119.172 67.104L119.078 67.2216C116.592 70.3656 112.438 72.2424 107.969 72.2424C100.042 72.2424 94.2864 66.264 94.2864 58.0272ZM107.321 47.328C102.854 47.328 99.2928 50.3664 98.1984 55.0872H116.16C115.39 50.508 111.78 47.328 107.321 47.328Z"
        fill="#FA7328" />
    <path fill-rule="evenodd" clip-rule="evenodd"
        d="M46.2192 0.364848C54.0912 0.364848 60.2568 6.60965 60.2568 14.58C60.2568 22.5504 54.0888 28.7929 46.2192 28.7953C38.3472 28.7953 32.1816 22.5504 32.1816 14.58C32.1816 6.60965 38.3472 0.364848 46.2192 0.364848ZM46.2168 3.88085C40.32 3.88085 35.8728 8.48165 35.8728 14.58C35.8728 20.6784 40.3224 25.2768 46.2168 25.2768C52.1136 25.2768 56.5608 20.6784 56.5608 14.58C56.5608 8.47925 52.1136 3.88085 46.2168 3.88085Z"
        fill="#FA7328" />
    <path
        d="M75.468 22.2168L65.7 1.05124L65.6544 0.955239H61.632L74.2992 28.2048H76.6944L89.1936 1.18804L89.3016 0.955239H85.2816L75.468 22.2168Z"
        fill="#FA7328" />
    <path fill-rule="evenodd" clip-rule="evenodd"
        d="M104.525 0.364848C108.25 0.364848 111.758 1.83845 114.221 4.41845V0.955246H117.797V28.2048H114.221V24.564C112.051 27.2208 108.533 28.7929 104.702 28.7929C101.71 28.7929 98.976 27.9288 96.5784 26.2248C92.8944 23.6472 90.7824 19.404 90.7824 14.58C90.7824 10.2144 92.6328 6.14404 95.8584 3.41525C98.2344 1.47605 101.393 0.364848 104.525 0.364848ZM104.645 25.2768C108.451 25.2768 111.984 23.1144 114.103 19.4928V9.19205C112.817 7.04165 109.248 3.87845 104.585 3.87845C102.295 3.87845 99.9672 4.70405 98.196 6.14405C95.8344 8.09285 94.4784 11.1672 94.4784 14.5776C94.4784 18.1945 96.0408 21.4561 98.6592 23.2992C100.56 24.612 102.574 25.2768 104.645 25.2768Z"
        fill="#FA7328" />
</svg>
